X: 25747
T: Mary O'Neill's
R: reel
M: 4/4
K: Amajor
|:a2ed cdec|B2ba gabg|a2ed cdef|ecdB cA~A2:|
~c3d ecAB|c2Bd cA~A2|~c3d ecAB|cABG ~A3B|
~c3d ecAB|c2Bd cA~A2|cefa ecAB|cABG ABce||

